X:3
T:Coming Through the Canebrake
M:C|
L:1/8
R:reel
K:D
d-B \
|: "D"A2d2 f3f | "G"g2B2 B2 d-B | "A"ABcd e2c2 | "D"defg a2dB |
   "D"A2d2 f3f | "G"g2B2 B2 d-B | "A"ABcd e2c2 |\
  [1 "D"d4 d2d-B :|[2 "D"d4 d2(fg ||
|: "D"a2)a2 abag | f2f2 f4 | "A"e2cd e2c2 | "D"defg a2 (fg |
   "D"a2)a2 abag | f2f2 f4 | "A"e2cd e2c2 |\
  [1 "D"d4 d2fg :|[2 "D"d4 d2d-B |]
N:www.youtube.com/watchv=ceUIkamnEUo adapted by Peter Ostapenko
N:("Coming Through the Canebreak" played by Mel Durham)
N:Last update - PO 6/3/2007
N:D Major
